packages/usa-icon/src/img/material-icons/no_stroller.svg

<svg xmlns="http://www.w3.org/2000/svg" height="24" viewBox="0 0 24 24" width="24"><path fill="none" d="M0 0h24v24H0z"/><path d="M6 18c1.1 0 2 .9 2 2s-.9 2-2 2-2-.9-2-2 .9-2 2-2zM18.65 3c-1.66 0-2.54 1.27-3.18 2.03l-3.5 4.11L17 14.17v-7.9c.58-.68.97-1.27 1.65-1.27.77 0 1.35.66 1.35 1.48V7h2v-.52C22 4.56 20.52 3 18.65 3zm-7.98 7.67L2.81 2.81 1.39 4.22l7.97 7.97-2.66 3.12c-.55.65-.09 1.65.76 1.65h6.66l1.17 1.17C14.54 18.42 14 19.14 14 20c0 1.1.9 2 2 2 .86 0 1.58-.54 1.87-1.3l1.91 1.91 1.41-1.41-4.8-4.8-5.72-5.73zm2.8-5.64c.27-.32.58-.72.98-1.09a9.347 9.347 0 0 0-7.81-.13l4.25 4.25 2.58-3.03z"/></svg>

<svg xmlns="http://www.w3.org/2000/svg" enable-background="new 0 0 24 24" height="24" viewBox="0 0 24 24" width="24"><g><rect fill="none" height="24" width="24"/><path d="M6,18c1.1,0,2,0.9,2,2s-0.9,2-2,2s-2-0.9-2-2S4.9,18,6,18z M18.65,3c-1.66,0-2.54,1.27-3.18,2.03l-3.5,4.11L17,14.17v-7.9 C17.58,5.59,17.97,5,18.65,5C19.42,5,20,5.66,20,6.48V7h2V6.48C22,4.56,20.52,3,18.65,3z M10.67,10.67L2.81,2.81L1.39,4.22 l7.97,7.97L6.7,15.31c-0.55,0.65-0.09,1.65,0.76,1.65h6.66l1.17,1.17C14.54,18.42,14,19.14,14,20c0,1.1,0.9,2,2,2 c0.86,0,1.58-0.54,1.87-1.3l1.91,1.91l1.41-1.41l-4.8-4.8L10.67,10.67z M13.47,5.03c0.27-0.32,0.58-0.72,0.98-1.09 c-2.46-1.19-5.32-1.22-7.81-0.13l4.25,4.25L13.47,5.03z"/></g></svg>
